assets/svg/icon_feed_replies.svg

<svg width="20" height="20" viewBox="0 0 20 20" fill="none" xmlns="http://www.w3.org/2000/svg">
<g id="icon/feed/replies">
<path id="Vector" d="M8.78797 7.27374C8.78797 7.27374 7.71126 7.28138 7.20235 7.25998C6.70618 7.23909 6.22888 7.11222 5.77045 6.91453C5.31712 6.71887 4.90356 6.45749 4.55681 6.11356C4.28246 5.84148 4.04942 5.52659 3.81128 5.22037C3.56345 4.90192 3.33296 4.56971 3.09023 4.24718C2.9653 4.08057 2.73753 3.9254 2.42987 4.03879C2.18102 4.1305 2.00815 4.36794 2.00815 4.61964C2.00815 5.61117 1.98571 6.60321 2.01529 7.59372C2.03416 8.22502 2.19122 8.84052 2.40794 9.43666C2.71135 10.2718 3.14276 11.0279 3.72357 11.7071C4.37833 12.4729 5.16006 13.0655 6.06315 13.4991C6.67558 13.7931 7.31912 14.0223 7.99734 14.085C8.74439 14.1543 9.49756 14.164 10.2477 14.1941C10.4945 14.2042 10.573 14.273 10.5735 14.5191C10.5745 14.9069 10.5766 15.2946 10.5751 15.6819C10.5735 16.3351 11.1865 16.9985 11.8988 17C12.4786 17.0015 12.8983 16.7789 13.2451 16.3376C13.4358 16.0946 13.6663 15.8831 13.8799 15.6584C14.5775 14.9242 15.2751 14.1895 15.9732 13.4558C16.4577 12.9468 16.9487 12.4433 17.425 11.9267C17.6631 11.6684 17.9181 11.4126 17.9747 11.0391C18.0451 10.5749 17.9793 10.1474 17.6402 9.79027C16.9951 9.11107 16.3521 8.43035 15.7091 7.74912C15.3491 7.36749 14.9906 6.98433 14.6321 6.60066C14.1405 6.07382 13.6495 5.54697 13.1594 5.0186C12.829 4.66193 12.4363 4.43571 11.9361 4.44284C11.3272 4.4515 10.778 4.88663 10.6189 5.48277C10.5715 5.6606 10.5791 5.85523 10.5751 6.04274C10.5684 6.35405 10.5751 6.66537 10.5725 6.97669C10.571 7.18865 10.4863 7.27323 10.2778 7.27374C9.76171 7.27476 8.78797 7.27374 8.78797 7.27374Z" stroke="#9A9A9A"/>
</g>
</svg>

<svg xmlns="http://www.w3.org/2000/svg" width="20" height="20" fill="none"><path stroke="#9A9A9A" d="M8.788 7.274s-1.077.007-1.586-.014a4 4 0 0 1-1.432-.345 3.9 3.9 0 0 1-1.213-.801c-.275-.273-.508-.587-.746-.894-.248-.318-.478-.65-.72-.973-.126-.166-.353-.322-.661-.208a.64.64 0 0 0-.422.58c0 .992-.022 1.984.007 2.975.02.631.176 1.247.393 1.843a7.3 7.3 0 0 0 1.316 2.27 7.1 7.1 0 0 0 2.34 1.792c.612.294 1.255.523 1.933.586.747.07 1.5.079 2.25.11.248.01.326.078.326.324q.004.582.002 1.163c-.002.653.612 1.316 1.324 1.318.58.002 1-.221 1.346-.662.19-.243.421-.455.635-.68l2.093-2.202c.485-.51.976-1.013 1.452-1.53.238-.258.493-.513.55-.887.07-.464.004-.892-.335-1.249a901 901 0 0 1-1.93-2.04q-.54-.574-1.078-1.15-.737-.789-1.473-1.581c-.33-.357-.723-.583-1.223-.576a1.41 1.41 0 0 0-1.317 1.04c-.047.178-.04.372-.044.56-.007.311 0 .622-.002.934-.002.212-.087.296-.295.297z"/></svg>
